X:5
T:Spanish Jig, The
R:Jig
O:England
M:6/8
A:Lancashire
B:Winder
K:G
G3 B3 | dBd g2d | efg dcB | ABG FED |     \
G3 B3 | dBd g2d | efg agf | g3 g3 :|*
|:b3 g3 | abg fed | efg dcB | ABG FED |      \
b3 g3 | abg fed | efg agf | g3g3 :|**
